X: 37724
T: Soldier's Joy
R: hornpipe
M: 4/4
K: Dmajor
AB|:A2F2 D2F2|A2 d2 d2 AB|A2F2 D2F2|E2EF E2 AB|
A2F2 D2F2|A2 d2 d2 de|fafd egec|d2 d2 d4:|

